V6_wwwroot/ptn/core/icons/fa6/svgs/solid/car-battery.svg

<svg xmlns="http://www.w3.org/2000/svg" viewBox="0 0 512 512"><!--! Font Awesome Free 6.4.2 by @fontawesome - https://fontawesome.com License - https://fontawesome.com/license/free (Icons: CC BY 4.0, Fonts: SIL OFL 1.1, Code: MIT License) Copyright 2023 Fonticons, Inc. --><path d="M80 96c0-17.7 14.3-32 32-32h64c17.7 0 32 14.3 32 32l96 0c0-17.7 14.3-32 32-32h64c17.7 0 32 14.3 32 32h16c35.3 0 64 28.7 64 64V384c0 35.3-28.7 64-64 64H64c-35.3 0-64-28.7-64-64V160c0-35.3 28.7-64 64-64l16 0zm304 96c0-8.8-7.2-16-16-16s-16 7.2-16 16v32H320c-8.8 0-16 7.2-16 16s7.2 16 16 16h32v32c0 8.8 7.2 16 16 16s16-7.2 16-16V256h32c8.8 0 16-7.2 16-16s-7.2-16-16-16H384V192zM80 240c0 8.8 7.2 16 16 16h96c8.8 0 16-7.2 16-16s-7.2-16-16-16H96c-8.8 0-16 7.2-16 16z"/></svg>

<svg xmlns="http://www.w3.org/2000/svg" viewBox="0 0 512 512"><!--! Font Awesome Free 6.1.1 by @fontawesome - https://fontawesome.com License - https://fontawesome.com/license/free (Icons: CC BY 4.0, Fonts: SIL OFL 1.1, Code: MIT License) Copyright 2022 Fonticons, Inc. --><path d="M80 96C80 78.33 94.33 64 112 64H176C193.7 64 208 78.33 208 96H304C304 78.33 318.3 64 336 64H400C417.7 64 432 78.33 432 96H448C483.3 96 512 124.7 512 160V384C512 419.3 483.3 448 448 448H64C28.65 448 0 419.3 0 384V160C0 124.7 28.65 96 64 96H80zM384 192C384 183.2 376.8 176 368 176C359.2 176 352 183.2 352 192V224H320C311.2 224 304 231.2 304 240C304 248.8 311.2 256 320 256H352V288C352 296.8 359.2 304 368 304C376.8 304 384 296.8 384 288V256H416C424.8 256 432 248.8 432 240C432 231.2 424.8 224 416 224H384V192zM96 256H192C200.8 256 208 248.8 208 240C208 231.2 200.8 224 192 224H96C87.16 224 80 231.2 80 240C80 248.8 87.16 256 96 256z"/></svg>
